X: 3
T: Anderson's Jig
C: Carol Cook
M: 6/8
L: 1/8
K: D
|: A |\
d2 f edc | dAF D2 A | B2 G AGF | EE/F/G ABc | 
d2 f edc | dAF D2 A | B>gf e<dc | d3- d2 :|
|: f/g/ |\ 
afd bg/a/b | afd d2 f  | ge/f/g fed | ecA A2 =c | 
BGD dce | dAF d2 a | b>gf e<ac | d3- d2 :|
